storage/app/icons/phosphoricons/light/laptop-light.svg

<svg xmlns="http://www.w3.org/2000/svg" fill="currentColor" viewBox="0 0 256 256"><path d="M232 170h-10V72a22 22 0 0 0-22-22H56a22 22 0 0 0-22 22v98H24a6 6 0 0 0-6 6v16a22 22 0 0 0 22 22h176a22 22 0 0 0 22-22v-16a6 6 0 0 0-6-6M46 72a10 10 0 0 1 10-10h144a10 10 0 0 1 10 10v98H46Zm180 120a10 10 0 0 1-10 10H40a10 10 0 0 1-10-10v-10h196ZM150 88a6 6 0 0 1-6 6h-32a6 6 0 0 1 0-12h32a6 6 0 0 1 6 6"/></svg>

<svg xmlns="http://www.w3.org/2000/svg" viewBox="0 0 256 256" fill="currentColor"><path d="M232,170H222V72a22,22,0,0,0-22-22H56A22,22,0,0,0,34,72v98H24a6,6,0,0,0-6,6v16a22,22,0,0,0,22,22H216a22,22,0,0,0,22-22V176A6,6,0,0,0,232,170ZM46,72A10,10,0,0,1,56,62H200a10,10,0,0,1,10,10v98H46ZM226,192a10,10,0,0,1-10,10H40a10,10,0,0,1-10-10V182H226ZM150,88a6,6,0,0,1-6,6H112a6,6,0,0,1,0-12h32A6,6,0,0,1,150,88Z"/></svg>
